X: 72
T:That's All
% Nottingham Music Database
S:Chris Collings, via PR
M:4/4
L:1/4
K:A
c/2B/2|"A"A/2B/2c/2d/2 ea|"D"fe "A"e2|"D"af "A"ec|\
"Bm"d/2c/2B/2A/2 "E7"G/2E/2F/2G/2|
"A"A/2B/2c/2d/2 ea|"D"fe "A"ea/2f/2|"A"e/2c/2d/2c/2 "E7"BE|"A"A2 A:|
f/2g/2|"D"af fa/2f/2|"A"f/2e/2A c2|"A"A/2G/2A/2B/2 ca/2f/2|\
"D"e/2c/2A/2c/2 "E"Bf/2g/2|
"D"af fa/2f/2|"A"f/2e/2A c2|"B7"B/2c/2^d/2e/2 f/2a/2g/2f/2|"E"e2 ef/2g/2|
"D"af fa/2f/2|"A"f/2e/2A c2|"A"A/2G/2A/2B/2 cB/2A/2|"D"FE "E7"EC/2B,/2|
"A"A,/2A,/2A,/2B,/2 C/2C/2C/2E/2|"A"A/2A/2A/2B/2 c/2e/2f/2g/2|\
"D"ac "E7"d/2c/2B|"A"A2 A||<end>
<start>
